material/.icons/material/snowflake.svg

<svg xmlns="http://www.w3.org/2000/svg" viewBox="0 0 24 24"><path d="M20.79 13.95l-2.33.62-2-1.13v-2.88l2-1.13 2.33.62.52-1.93-1.77-.47.46-1.77-1.93-.52-.62 2.33-2 1.13L13 7.38V5.12l1.71-1.71L13.29 2 12 3.29 10.71 2 9.29 3.41 11 5.12v2.26L8.5 8.82l-2-1.13-.58-2.33L4 5.88l.47 1.77-1.77.47.52 1.93 2.33-.62 2 1.13v2.89l-2 1.13-2.33-.62-.52 1.93 1.77.47L4 18.12l1.93.52.62-2.33 2-1.13L11 16.62v2.26l-1.71 1.71L10.71 22 12 20.71 13.29 22l1.41-1.41-1.7-1.71v-2.26l2.5-1.45 2 1.13.62 2.33 1.88-.51-.47-1.77 1.77-.47-.51-1.93M9.5 10.56L12 9.11l2.5 1.45v2.88L12 14.89l-2.5-1.45v-2.88z"/></svg>

<?xml version="1.0" encoding="UTF-8"?><!DOCTYPE svg PUBLIC "-//W3C//DTD SVG 1.1//EN" "http://www.w3.org/Graphics/SVG/1.1/DTD/svg11.dtd"><svg xmlns="http://www.w3.org/2000/svg" xmlns:xlink="http://www.w3.org/1999/xlink" version="1.1" id="mdi-snowflake" width="24" height="24" viewBox="0 0 24 24"><path d="M20.79,13.95L18.46,14.57L16.46,13.44V10.56L18.46,9.43L20.79,10.05L21.31,8.12L19.54,7.65L20,5.88L18.07,5.36L17.45,7.69L15.45,8.82L13,7.38V5.12L14.71,3.41L13.29,2L12,3.29L10.71,2L9.29,3.41L11,5.12V7.38L8.5,8.82L6.5,7.69L5.92,5.36L4,5.88L4.47,7.65L2.7,8.12L3.22,10.05L5.55,9.43L7.55,10.56V13.45L5.55,14.58L3.22,13.96L2.7,15.89L4.47,16.36L4,18.12L5.93,18.64L6.55,16.31L8.55,15.18L11,16.62V18.88L9.29,20.59L10.71,22L12,20.71L13.29,22L14.7,20.59L13,18.88V16.62L15.5,15.17L17.5,16.3L18.12,18.63L20,18.12L19.53,16.35L21.3,15.88L20.79,13.95M9.5,10.56L12,9.11L14.5,10.56V13.44L12,14.89L9.5,13.44V10.56Z" /></svg>
